X:264
T:Buy a Broom
O:No 264 William Clarke of Feltwell
M:3/8
L:1/8
K:G
d3/2e/d/c/|(BG)G|(AD)D|(BG)G|d3/2e/d/c/|(BG)G|(AD)D|G2z::(AD)D|(BG)G|(AD)D|BG G/B/|d3/2e/d/c/|(B/d/) GG|(Ad) D/D/|G3:|

